svg/u1f468_1f3fb_200d_1f680.svg

<svg viewBox="0 0 128 128" xmlns="http://www.w3.org/2000/svg">
  <g id="suit_2_">
    <g id="XMLID_1_">
      <linearGradient id="SVGID_1_" gradientTransform="matrix(1 0 0 -1 0 128)" gradientUnits="userSpaceOnUse" x1="63.75" x2="63.75" y1="4.3794" y2="35.6551">
        <stop offset="0" stop-color="#B3B3B3"/>
        <stop offset="0.0332" stop-color="#B7B7B7"/>
        <stop offset="0.3745" stop-color="#D9D9D9"/>
        <stop offset="0.5592" stop-color="#E6E6E6"/>
      </linearGradient>
      <path d="M64.28,92.23c-0.04,0-0.09,0-0.13,0c-25.82,0.04-52.19,9.31-52.19,31.37v0.37h1.5h1.57 h97.57h1.44h1.5v-0.37C115.54,102.81,90.21,92.23,64.28,92.23z" fill="url(#SVGID_1_)"/>
    </g>
    <path d="M89,123.97v-8.7c0-2.19-1.79-3.99-3.99-3.99H44.57c-2.19,0-3.99,1.79-3.99,3.99v8.7 C40.58,123.97,89,123.97,89,123.97z" fill="#A6A6A6"/>
    <path d="M116.04,123.97v-0.35c0-5.12-2.25-8.34-3.4-11.25l-8.06,2.81l3.29,8.8H116.04z" fill="#757575"/>
    <path d="M20.38,123.97c0.19-1.03,0.3-2.08,0.3-3.16c0-4.02-1.62-7.73-4.43-10.77 c-2.73,3.6-4.2,7.67-4.2,12.22v1.71L20.38,123.97L20.38,123.97z" fill="#757575"/>
    <g>
      <linearGradient id="SVGID_2_" gradientTransform="matrix(1 0 0 -1 0 128)" gradientUnits="userSpaceOnUse" x1="63.8585" x2="63.8585" y1="36.1347" y2="18.1068">
        <stop offset="4.100000e-03" stop-color="#E6E6E6"/>
        <stop offset="0.3332" stop-color="#D9D9D9"/>
        <stop offset="0.9409" stop-color="#B7B7B7"/>
        <stop offset="1" stop-color="#B3B3B3"/>
      </linearGradient>
      <path d="M97.33,102.53c-11.44,4.91-23.94,7.24-36.38,6.81c-6.12-0.21-12.22-1.09-18.15-2.61 c-3.09-0.79-6.14-1.76-9.12-2.89c-2.67-1.02-5.37-2.03-7.34-4.2c-1.75-1.93-2.85-4.62-2.26-7.24c0.59-2.6,2.58-4.82,5.02-5.83 c2.79-1.16,5.77-0.89,8.5,0.24c2.8,1.17,5.66,2.17,8.58,2.96c11.9,3.23,24.63,3.12,36.48-0.3c1.69-0.49,3.36-1.04,5.01-1.66 c1.63-0.61,3.21-1.45,4.92-1.8c2.92-0.6,6.24,0.03,8.51,2.05c2.3,2.05,3.34,5.28,2.34,8.23 C102.46,99.15,100.05,101.36,97.33,102.53z" fill="url(#SVGID_2_)"/>
    </g>
  </g>
  <ellipse id="helmet_x5F_back_2_" cx="63.88" cy="52.98" fill="#4C4C4C" rx="49.17" ry="48.69"/>
  <path d="M110.32,53.04c-0.02,9.57-3,18.47-8.09,25.83c-0.33,0.48-0.67,0.95-1.02,1.41 c-0.59,0.8-1.21,1.57-1.85,2.32c-2.5,2.92-5.34,5.52-8.49,7.75c-4.77,3.38-10.2,5.89-16.08,7.28c-0.61,0.16-1.22,0.29-1.84,0.41 c-2.96,0.59-6.01,0.89-9.14,0.89c-3.09,0-6.11-0.31-9.03-0.88c-0.66-0.13-1.31-0.27-1.95-0.43c-6.06-1.47-11.66-4.12-16.53-7.7 c-2.99-2.18-5.7-4.71-8.06-7.52c-0.55-0.65-1.07-1.3-1.58-1.98v-0.01c-0.35-0.45-0.69-0.91-1.01-1.38 c-5.19-7.43-8.23-16.44-8.21-26.13c0.02-11.97,4.68-22.88,12.29-31.05C38.25,12.72,50.44,7,63.95,7.02 c14.58,0.02,27.6,6.72,36.1,17.17C106.49,32.09,110.34,42.13,110.32,53.04z" fill="#212121"/>
  <path id="ears" d="M88.93,54.03H38.57c-5.43,0-9.87,4.73-9.87,10.52s4.44,10.52,9.87,10.52h50.36 c5.43,0,9.87-4.73,9.87-10.52S94.36,54.03,88.93,54.03z" fill="#EDC391"/>
  <path id="head" d="M63.75,17.76c-16.04,0-30.89,17.15-30.89,41.83c0,24.55,15.3,36.68,30.89,36.68 s30.89-12.14,30.89-36.68C94.64,34.91,79.79,17.76,63.75,17.76z" fill="#F9DDBD"/>
  <g id="eyes_2_">
    <ellipse cx="48.6" cy="61.75" fill="#312D2D" rx="4.54" ry="4.7"/>
    <ellipse cx="78.9" cy="61.75" fill="#312D2D" rx="4.54" ry="4.7"/>
  </g>
  <path id="mouth_2_" d="M71.51,77.72c-2.94,1.75-12.56,1.75-15.49,0c-1.69-1-3.41,0.53-2.71,2.06 c0.69,1.51,5.94,5,10.48,5s9.72-3.49,10.41-5C74.89,78.25,73.19,76.72,71.51,77.72z" fill="#444444"/>
  <path id="nose_2_" d="M67.31,70.27c-0.1-0.04-0.2-0.06-0.3-0.08h-6.52c-0.1,0.01-0.2,0.04-0.3,0.08 c-0.59,0.24-0.92,0.85-0.64,1.5s1.58,2.48,4.19,2.48c2.62,0,3.91-1.83,4.19-2.48C68.22,71.12,67.9,70.51,67.31,70.27z" fill="#DBA689"/>
  <g id="hairGroup">
    <path id="hair_7_" d="M63.79,11.15L63.79,11.15c-0.01,0-0.01,0-0.02,0s-0.01,0-0.02,0v0 c-42.23,0.22-33.58,48.46-33.58,48.46s1.89,4.97,2.76,7.17c0.12,0.32,0.58,0.28,0.66-0.05c0.9-4.03,4.15-18.33,5.78-22.68 c0.96-2.56,3.62-4.05,6.31-3.56c4.14,0.75,10.73,1.68,18,1.68c0.03,0,0.05,0,0.08,0s0.05,0,0.08,0c7.27,0,13.86-0.93,18-1.68 c2.69-0.49,5.35,1,6.32,3.56c1.63,4.33,4.85,18.55,5.76,22.64c0.07,0.33,0.54,0.37,0.66,0.05l2.77-7.12 C97.37,59.61,106.02,11.38,63.79,11.15z" fill="#312D2D"/>
    <radialGradient id="hairHighlights_1_" cx="63.7746" cy="76.8203" gradientTransform="matrix(1 0 0 -1.1282 0 137.8472)" gradientUnits="userSpaceOnUse" r="35.4028">
      <stop offset="0.7945" stop-color="#454140" stop-opacity="0"/>
      <stop offset="1" stop-color="#454140"/>
    </radialGradient>
    <path id="hairHighlights" d="M97.37,59.61c0,0,8.65-48.23-33.58-48.46v0 c-0.01,0-0.01,0-0.02,0h0c-0.01,0-0.01,0-0.01,0l0,0c-0.66,0-1.3,0.02-1.93,0.05c-1.26,0.05-2.47,0.15-3.64,0.29 c-0.01,0-0.02,0-0.04,0c-0.08,0.01-0.16,0.02-0.24,0.03C22.36,16,30.18,59.61,30.18,59.61l2.77,7.13c0.12,0.32,0.58,0.28,0.65-0.05 c0.91-4.08,4.15-18.32,5.78-22.65c0.96-2.56,3.62-4.05,6.31-3.56c4.14,0.75,10.73,1.68,18,1.68c0.03,0,0.05,0,0.08,0s0.05,0,0.08,0 c7.27,0,13.86-0.93,18-1.68c2.69-0.49,5.35,1,6.32,3.56c1.64,4.35,4.88,18.68,5.78,22.69c0.07,0.33,0.53,0.36,0.65,0.05 C95.46,64.6,97.37,59.61,97.37,59.61z" fill="url(#hairHighlights_1_)"/>
  </g>
  <g id="helmet_2_">
    <radialGradient id="SVGID_3_" cx="64.6478" cy="120.4689" gradientTransform="matrix(1 0 0 -1 0 128)" gradientUnits="userSpaceOnUse" r="26.0012">
      <stop offset="5.000000e-03" stop-color="#F2F2F2"/>
      <stop offset="0.4222" stop-color="#E5E5E5"/>
      <stop offset="1" stop-color="#CCCCCC"/>
    </radialGradient>
    <path d="M113.06,53.21c0,0.24-0.01,0.48-0.01,0.73c-3.27-6.99-7.99-13.17-13.77-18.15 c-4.82-4.16-10.37-7.48-16.45-9.74c-5.9-2.21-12.28-3.41-18.94-3.41c-6.85,0-13.39,1.27-19.42,3.59c-6,2.29-11.49,5.64-16.25,9.79 c-5.65,4.95-10.27,11.04-13.49,17.92c0-0.25-0.02-0.49-0.02-0.73C14.29,26.41,36.43,4.03,63.89,4.03 C91.05,4.03,113.06,26.05,113.06,53.21z" fill="url(#SVGID_3_)"/>
  </g>
  <g id="eyebrows_1_">
    <path d="M41.62,54.29c2.76-3.91,9.03-4.27,12.62-1.37c0.57,0.46,1.33,1.11,1.55,1.83 c0.37,1.17-0.76,2.08-1.85,1.81c-0.7-0.18-1.35-0.55-2.05-0.77c-1.26-0.4-2.18-0.51-3.31-0.51c-1.68-0.01-2.76,0.2-4.35,0.85 c-0.66,0.27-1.19,0.69-1.94,0.38C41.43,56.16,41.1,55.06,41.62,54.29z" fill="#454140"/>
    <path d="M84.15,56.51c-0.27-0.12-0.53-0.27-0.8-0.38c-1.64-0.69-2.58-0.85-4.35-0.85 c-1.57,0.01-2.51,0.22-3.73,0.64c-0.75,0.26-1.7,0.91-2.53,0.65c-1.21-0.37-1.18-1.7-0.51-2.54c0.79-1,1.88-1.76,3.04-2.26 c2.68-1.16,5.95-1,8.47,0.51c0.83,0.49,1.72,1.17,2.22,2.01C86.67,55.5,85.57,57.09,84.15,56.51z" fill="#454140"/>
  </g>
</svg>

<svg viewBox="0 0 128 128" xmlns="http://www.w3.org/2000/svg">
  <defs>
    <radialGradient id="hairHighlights_1_" cx="63.7746" cy="-45.363001" gradientTransform="matrix(1 0 0 -1.1282 0 0)" gradientUnits="userSpaceOnUse" r="35.4028">
      <stop offset="0.7945" stop-color="#454140" stop-opacity="0"/>
      <stop offset="1" stop-color="#454140"/>
    </radialGradient>
    <radialGradient id="SVGID_3_" cx="64.6478" cy="-7.5311" gradientTransform="matrix(1 0 0 -1 0 0)" gradientUnits="userSpaceOnUse" r="26.0012">
      <stop offset="5.000000e-03" stop-color="#F2F2F2"/>
      <stop offset="0.4222" stop-color="#E5E5E5"/>
      <stop offset="1" stop-color="#CCCCCC"/>
    </radialGradient>
    <linearGradient id="SVGID_1_" gradientTransform="matrix(1 0 0 -1 0 0)" gradientUnits="userSpaceOnUse" x1="63.75" x2="63.75" y1="-123.6206" y2="-92.3449">
      <stop offset="0" stop-color="#B3B3B3"/>
      <stop offset="0.0332" stop-color="#B7B7B7"/>
      <stop offset="0.3745" stop-color="#D9D9D9"/>
      <stop offset="0.5592" stop-color="#E6E6E6"/>
    </linearGradient>
    <linearGradient id="SVGID_2_" gradientTransform="matrix(1 0 0 -1 0 0)" gradientUnits="userSpaceOnUse" x1="63.8585" x2="63.8585" y1="-91.8653" y2="-109.8932">
      <stop offset="4.100000e-03" stop-color="#E6E6E6"/>
      <stop offset="0.3332" stop-color="#D9D9D9"/>
      <stop offset="0.9409" stop-color="#B7B7B7"/>
      <stop offset="1" stop-color="#B3B3B3"/>
    </linearGradient>
  </defs>
  <path d="M64.28,92.23 C64.24,92.23 64.19,92.23 64.15,92.23 C38.33,92.27 11.96,101.54 11.96,123.6 L11.96,123.97 L13.46,123.97 L15.03,123.97 L112.6,123.97 L114.04,123.97 L115.54,123.97 L115.54,123.6 C115.54,102.81 90.21,92.23 64.28,92.23 Z" fill="url(#SVGID_1_)"/>
  <path d="M89,123.97 L89,115.27 C89,113.08 87.21,111.28 85.01,111.28 L44.57,111.28 C42.38,111.28 40.58,113.07 40.58,115.27 L40.58,123.97 C40.58,123.97 89,123.97 89,123.97 Z" fill="#A6A6A6"/>
  <path d="M116.04,123.97 L116.04,123.62 C116.04,118.5 113.79,115.28 112.64,112.37 L104.58,115.18 L107.87,123.98 L116.04,123.98 Z" fill="#757575"/>
  <path d="M20.38,123.97 C20.57,122.94 20.68,121.89 20.68,120.81 C20.68,116.79 19.06,113.08 16.25,110.04 C13.52,113.64 12.05,117.71 12.05,122.26 L12.05,123.97 L20.38,123.97 L20.38,123.97 Z" fill="#757575"/>
  <path d="M97.33,102.53 C85.89,107.44 73.39,109.77 60.95,109.34 C54.83,109.13 48.73,108.25 42.8,106.73 C39.71,105.94 36.66,104.97 33.68,103.84 C31.01,102.82 28.31,101.81 26.34,99.64 C24.59,97.71 23.49,95.02 24.08,92.4 C24.67,89.8 26.66,87.58 29.1,86.57 C31.89,85.41 34.87,85.68 37.6,86.81 C40.4,87.98 43.26,88.98 46.18,89.77 C58.08,93 70.81,92.89 82.66,89.47 C84.35,88.98 86.02,88.43 87.67,87.81 C89.3,87.2 90.88,86.36 92.59,86.01 C95.51,85.41 98.83,86.04 101.1,88.06 C103.4,90.11 104.44,93.34 103.44,96.29 C102.46,99.15 100.05,101.36 97.33,102.53 Z" fill="url(#SVGID_2_)"/>
  <path id="helmet_x5F_back_2_" d="M113.05,52.98 A49.17 48.69 0 1 1 14.71,52.98 A49.17 48.69 0 1 1 113.05,52.98 Z" fill="#4C4C4C"/>
  <path d="M110.32,53.04 C110.3,62.61 107.32,71.51 102.23,78.87 C101.9,79.35 101.56,79.82 101.21,80.28 C100.62,81.08 100,81.85 99.36,82.6 C96.86,85.52 94.02,88.12 90.87,90.35 C86.1,93.73 80.67,96.24 74.79,97.63 C74.18,97.79 73.57,97.92 72.95,98.04 C69.99,98.63 66.94,98.93 63.81,98.93 C60.72,98.93 57.7,98.62 54.78,98.05 C54.12,97.92 53.47,97.78 52.83,97.62 C46.77,96.15 41.17,93.5 36.3,89.92 C33.31,87.74 30.6,85.21 28.24,82.4 C27.69,81.75 27.17,81.1 26.66,80.42 L26.66,80.41 C26.31,79.96 25.97,79.5 25.65,79.03 C20.46,71.6 17.42,62.59 17.44,52.9 C17.46,40.93 22.12,30.02 29.73,21.85 C38.25,12.72 50.44,7 63.95,7.02 C78.53,7.04 91.55,13.74 100.05,24.19 C106.49,32.09 110.34,42.13 110.32,53.04 Z" fill="#212121"/>
  <path id="ears" d="M88.93,54.03 L38.57,54.03 C33.14,54.03 28.7,58.76 28.7,64.55 C28.7,70.34 33.14,75.07 38.57,75.07 L88.93,75.07 C94.36,75.07 98.8,70.34 98.8,64.55 C98.8,58.76 94.36,54.03 88.93,54.03 Z" fill="#EDC391"/>
  <path id="head" d="M63.75,17.76 C47.71,17.76 32.86,34.91 32.86,59.59 C32.86,84.14 48.16,96.27 63.75,96.27 C79.34,96.27 94.64,84.13 94.64,59.59 C94.64,34.91 79.79,17.76 63.75,17.76 Z" fill="#F9DDBD"/>
  <path d="M53.14,61.75 A4.54 4.7 0 1 1 44.06,61.75 A4.54 4.7 0 1 1 53.14,61.75 Z" fill="#312D2D"/>
  <path d="M83.44,61.75 A4.54 4.7 0 1 1 74.36,61.75 A4.54 4.7 0 1 1 83.44,61.75 Z" fill="#312D2D"/>
  <path id="mouth_2_" d="M71.51,77.72 C68.57,79.47 58.95,79.47 56.02,77.72 C54.33,76.72 52.61,78.25 53.31,79.78 C54,81.29 59.25,84.78 63.79,84.78 C68.33,84.78 73.51,81.29 74.2,79.78 C74.89,78.25 73.19,76.72 71.51,77.72 Z" fill="#444444"/>
  <path id="nose_2_" d="M67.31,70.27 C67.21,70.23 67.11,70.21 67.01,70.19 L60.49,70.19 C60.39,70.2 60.29,70.23 60.19,70.27 C59.6,70.51 59.27,71.12 59.55,71.77 C59.83,72.42 61.13,74.25 63.74,74.25 C66.36,74.25 67.65,72.42 67.93,71.77 C68.22,71.12 67.9,70.51 67.31,70.27 Z" fill="#DBA689"/>
  <path id="hair_7_" d="M63.79,11.15 L63.79,11.15 C63.78,11.15 63.78,11.15 63.77,11.15 C63.76,11.15 63.76,11.15 63.75,11.15 L63.75,11.15 C21.52,11.37 30.17,59.61 30.17,59.61 C30.17,59.61 32.06,64.58 32.93,66.78 C33.05,67.1 33.51,67.06 33.59,66.73 C34.49,62.7 37.74,48.4 39.37,44.05 C40.33,41.49 42.99,40 45.68,40.49 C49.82,41.24 56.41,42.17 63.68,42.17 C63.71,42.17 63.73,42.17 63.76,42.17 C63.79,42.17 63.81,42.17 63.84,42.17 C71.11,42.17 77.7,41.24 81.84,40.49 C84.53,40 87.19,41.49 88.16,44.05 C89.79,48.38 93.01,62.6 93.92,66.69 C93.99,67.02 94.46,67.06 94.58,66.74 L97.35,59.62 C97.37,59.61 106.02,11.38 63.79,11.15 Z" fill="#312D2D"/>
  <path id="hairHighlights" d="M97.37,59.61 C97.37,59.61 106.02,11.38 63.79,11.15 L63.79,11.15 C63.78,11.15 63.78,11.15 63.77,11.15 L63.77,11.15 C63.76,11.15 63.76,11.15 63.76,11.15 L63.76,11.15 C63.1,11.15 62.46,11.17 61.83,11.2 C60.57,11.25 59.36,11.35 58.19,11.49 C58.18,11.49 58.17,11.49 58.15,11.49 C58.07,11.5 57.99,11.51 57.91,11.52 C22.36,16 30.18,59.61 30.18,59.61 L32.95,66.74 C33.07,67.06 33.53,67.02 33.6,66.69 C34.51,62.61 37.75,48.37 39.38,44.04 C40.34,41.48 43,39.99 45.69,40.48 C49.83,41.23 56.42,42.16 63.69,42.16 C63.72,42.16 63.74,42.16 63.77,42.16 C63.8,42.16 63.82,42.16 63.85,42.16 C71.12,42.16 77.71,41.23 81.85,40.48 C84.54,39.99 87.2,41.48 88.17,44.04 C89.81,48.39 93.05,62.72 93.95,66.73 C94.02,67.06 94.48,67.09 94.6,66.78 C95.46,64.6 97.37,59.61 97.37,59.61 Z" fill="url(#hairHighlights_1_)"/>
  <path d="M113.06,53.21 C113.06,53.45 113.05,53.69 113.05,53.94 C109.78,46.95 105.06,40.77 99.28,35.79 C94.46,31.63 88.91,28.31 82.83,26.05 C76.93,23.84 70.55,22.64 63.89,22.64 C57.04,22.64 50.5,23.91 44.47,26.23 C38.47,28.52 32.98,31.87 28.22,36.02 C22.57,40.97 17.95,47.06 14.73,53.94 C14.73,53.69 14.71,53.45 14.71,53.21 C14.29,26.41 36.43,4.03 63.89,4.03 C91.05,4.03 113.06,26.05 113.06,53.21 Z" fill="url(#SVGID_3_)"/>
  <path d="M41.62,54.29 C44.38,50.38 50.65,50.02 54.24,52.92 C54.81,53.38 55.57,54.03 55.79,54.75 C56.16,55.92 55.03,56.83 53.94,56.56 C53.24,56.38 52.59,56.01 51.89,55.79 C50.63,55.39 49.71,55.28 48.58,55.28 C46.9,55.27 45.82,55.48 44.23,56.13 C43.57,56.4 43.04,56.82 42.29,56.51 C41.43,56.16 41.1,55.06 41.62,54.29 Z" fill="#454140"/>
  <path d="M84.15,56.51 C83.88,56.39 83.62,56.24 83.35,56.13 C81.71,55.44 80.77,55.28 79,55.28 C77.43,55.29 76.49,55.5 75.27,55.92 C74.52,56.18 73.57,56.83 72.74,56.57 C71.53,56.2 71.56,54.87 72.23,54.03 C73.02,53.03 74.11,52.27 75.27,51.77 C77.95,50.61 81.22,50.77 83.74,52.28 C84.57,52.77 85.46,53.45 85.96,54.29 C86.67,55.5 85.57,57.09 84.15,56.51 Z" fill="#454140"/>
</svg>
